public/buybutton.svg

<svg width="139" height="66" viewBox="0 0 139 66" fill="none" xmlns="http://www.w3.org/2000/svg">
<g filter="url(#filter0_d_676_1424)">
<path d="M28.5639 8.93967L12.3892 7.92278C11.8567 7.8893 11.5379 8.50436 11.8723 8.92019C12.023 9.10759 12.0504 9.36573 11.9424 9.58059L11.2593 10.9398C11.0989 11.259 11.1209 11.6396 11.3172 11.9382L13.6205 15.4414C13.7033 15.5674 13.7566 15.7106 13.7763 15.8602L14.2279 19.2888C14.2489 19.4483 14.3081 19.6005 14.4005 19.7322L20.3259 28.1846C20.4438 28.3528 20.5071 28.5532 20.5071 28.7586L20.507 38.8256C20.507 38.9575 20.5331 39.088 20.5837 39.2097L23.66 46.6061C23.7886 46.9154 23.7539 47.2685 23.5674 47.5468L22.9596 48.4538C22.6407 48.9296 22.7859 49.5756 23.2777 49.8692L23.9067 50.2446C24.1206 50.3723 24.3745 50.4155 24.6186 50.3658L28.3448 49.6076L35.5917 48.7965C35.7353 48.7805 35.8806 48.7957 36.0177 48.8412L42.3352 50.9361C42.4624 50.9783 42.5967 50.9944 42.7303 50.9837L56.3377 49.8861L61.7053 49.3521C61.8573 49.337 62.0107 49.3569 62.1538 49.4103L63.2602 49.823C63.372 49.8647 63.4896 49.8861 63.6089 49.8861H67.9082C68.1982 49.8861 72.2675 49.3606 74.439 49.0753C74.5632 49.059 74.6889 49.0662 74.8104 49.0964L77.8086 49.842C77.9257 49.8712 78.0471 49.8788 78.1669 49.8647L84.89 49.0727C85.0137 49.0581 85.1391 49.0668 85.2596 49.0983L92.3838 50.9587C92.4886 50.9861 92.5971 50.9962 92.7051 50.9888L120.8 49.0581C120.872 49.0531 120.944 49.056 121.016 49.0667L125.654 49.7588C126.103 49.8258 126.507 49.478 126.507 49.024C126.507 48.8607 126.561 48.7019 126.66 48.5722L127.666 47.2586C127.874 46.9871 127.929 46.6283 127.811 46.3072L126.941 43.9258C126.901 43.8158 126.88 43.7001 126.88 43.583V38.7468C126.88 38.524 126.631 37.5401 126.507 37.0759L125.908 35.289C125.814 35.0094 125.849 34.7028 126.002 34.451L127.464 32.0523C127.57 31.8781 127.62 31.6757 127.608 31.4721L126.518 13.3082C126.51 13.1881 126.525 13.0677 126.561 12.9528L127.43 10.1402C127.537 9.79603 127.332 9.43314 126.983 9.34619C126.703 9.27666 126.507 9.02561 126.507 8.73752V8.65313C126.507 8.21628 126.128 7.87581 125.694 7.92211L121.396 8.38017C121.32 8.3883 121.243 8.38762 121.167 8.37816L116.898 7.84729C116.834 7.83941 116.77 7.83762 116.707 7.84194L100.65 8.93103C100.473 8.94304 100.296 8.90771 100.137 8.82867L98.4809 8.00474C98.2617 7.89568 98.0101 7.87086 97.7737 7.93498L94.2453 8.89229C94.1067 8.9299 93.9616 8.93721 93.8199 8.91371L90.757 8.40587C90.703 8.39691 90.6483 8.39241 90.5935 8.39241H89.9293H85.4712C85.218 8.39241 84.9743 8.29638 84.7891 8.12371L83.9928 7.38098C83.7389 7.14421 83.3804 7.05604 83.0457 7.14806L76.964 8.81981C76.6666 8.90156 76.3482 8.84151 76.101 8.65708L74.9407 7.79138C74.7387 7.64068 74.4873 7.5718 74.2367 7.59851L59.1849 9.20285C59.0307 9.21929 58.8748 9.19962 58.7294 9.14541L55.4882 7.93622C55.3117 7.87038 55.1202 7.85573 54.9357 7.89396L48.757 9.17453C48.5883 9.20948 48.4135 9.20028 48.2495 9.14783L46.0356 8.43992C45.9372 8.40843 45.8344 8.39241 45.7311 8.39241H35.915C35.8449 8.39241 35.7751 8.38504 35.7065 8.37043L33.4227 7.88358C33.2741 7.8519 33.1203 7.8545 32.9729 7.89116L28.868 8.91208C28.7686 8.93679 28.6661 8.9461 28.5639 8.93967Z" fill="#CCFDFF" fill-opacity="0.75" shape-rendering="crispEdges"/>
</g>
<defs>
<filter id="filter0_d_676_1424" x="0.752344" y="0.712305" width="137.52" height="64.6788" filterUnits="userSpaceOnUse" color-interpolation-filters="sRGB">
<feFlood flood-opacity="0" result="BackgroundImageFix"/>
<feColorMatrix in="SourceAlpha" type="matrix" values="0 0 0 0 0 0 0 0 0 0 0 0 0 0 0 0 0 0 127 0" result="hardAlpha"/>
<feOffset dy="4"/>
<feGaussianBlur stdDeviation="5.2"/>
<feComposite in2="hardAlpha" operator="out"/>
<feColorMatrix type="matrix" values="0 0 0 0 0.286275 0 0 0 0 0.572549 0 0 0 0 0.603922 0 0 0 1 0"/>
<feBlend mode="normal" in2="BackgroundImageFix" result="effect1_dropShadow_676_1424"/>
<feBlend mode="normal" in="SourceGraphic" in2="effect1_dropShadow_676_1424" result="shape"/>
</filter>
</defs>
</svg>

<svg xmlns="http://www.w3.org/2000/svg" width="139" height="66" fill="none"><g filter="url(#a)"><path fill="#CCFDFF" fill-opacity=".75" d="M28.564 8.94 12.389 7.923a.614.614 0 0 0-.517.997c.151.188.178.446.07.66l-.683 1.36a1 1 0 0 0 .058.998l2.303 3.503a1 1 0 0 1 .156.42l.452 3.428a1 1 0 0 0 .172.443l5.926 8.453a1 1 0 0 1 .181.574v10.067a1 1 0 0 0 .077.384l3.076 7.396a1 1 0 0 1-.093.94l-.607.908a1 1 0 0 0 .318 1.415l.629.376a1 1 0 0 0 .712.12l3.726-.757 7.247-.811a1 1 0 0 1 .426.044l6.317 2.095a1 1 0 0 0 .395.048l13.608-1.098 5.367-.534a1 1 0 0 1 .449.058l1.106.413q.17.063.349.063h4.3c.29 0 4.358-.525 6.53-.81a1 1 0 0 1 .371.02l2.999.746q.177.044.358.023l6.723-.792a1 1 0 0 1 .37.025l7.124 1.86a1 1 0 0 0 .321.03l28.095-1.93a1 1 0 0 1 .216.009l4.638.692a.743.743 0 0 0 .853-.735c0-.163.054-.322.153-.452l1.006-1.313a1 1 0 0 0 .145-.952l-.87-2.381a1 1 0 0 1-.061-.343v-4.836c0-.223-.249-1.207-.373-1.671l-.599-1.787a1 1 0 0 1 .094-.838l1.462-2.399c.106-.174.156-.376.144-.58l-1.09-18.164a1 1 0 0 1 .043-.355l.869-2.813a.627.627 0 0 0-.447-.794.63.63 0 0 1-.476-.608v-.085a.735.735 0 0 0-.813-.73l-4.298.457a1 1 0 0 1-.229-.002l-4.269-.53a1 1 0 0 0-.191-.006L100.65 8.93a1 1 0 0 1-.513-.102l-1.656-.824a1 1 0 0 0-.707-.07l-3.529.957a1 1 0 0 1-.425.022l-3.063-.508a1 1 0 0 0-.163-.014H85.47a1 1 0 0 1-.682-.268l-.796-.743a1 1 0 0 0-.947-.233L76.964 8.82a1 1 0 0 1-.863-.163l-1.16-.866a1 1 0 0 0-.704-.192L59.185 9.203a1 1 0 0 1-.456-.058l-3.24-1.209a1 1 0 0 0-.553-.042l-6.179 1.28a1 1 0 0 1-.508-.026l-2.213-.708a1 1 0 0 0-.305-.048h-9.816a1 1 0 0 1-.209-.022l-2.283-.486a1 1 0 0 0-.45.007l-4.105 1.021a1 1 0 0 1-.304.028" shape-rendering="crispEdges"/></g><defs><filter id="a" width="137.52" height="64.679" x=".752" y=".712" color-interpolation-filters="sRGB" filterUnits="userSpaceOnUse"><feFlood flood-opacity="0" result="BackgroundImageFix"/><feColorMatrix in="SourceAlpha" result="hardAlpha" values="0 0 0 0 0 0 0 0 0 0 0 0 0 0 0 0 0 0 127 0"/><feOffset dy="4"/><feGaussianBlur stdDeviation="5.2"/><feComposite in2="hardAlpha" operator="out"/><feColorMatrix values="0 0 0 0 0.286275 0 0 0 0 0.572549 0 0 0 0 0.603922 0 0 0 1 0"/><feBlend in2="BackgroundImageFix" result="effect1_dropShadow_676_1424"/><feBlend in="SourceGraphic" in2="effect1_dropShadow_676_1424" result="shape"/></filter></defs></svg>
